X: 23158
T: Le Canal En Octobre
R: barndance
M: 4/4
K: Gmajor
|:GA|B2 B2 cBAG|d2 d2 cBAG|EFGB A3 G|FGEF DDGA|
B2 B2 cBAG|d2 B2 cBAG|EFGB A3 G|G6:|
|:Bc|d2 d2 cBAG|g2 d2 cBAG|EFGB A3 G|FGEF D2 Bc|
d2 d2 cBAG|g2 d2 cBAG|EFGB A3 G|G6:|

